src/icons/outline/communication/transfer.svg

<svg width="24" height="24" viewBox="0 0 24 24" fill="none" xmlns="http://www.w3.org/2000/svg">
<path d="M16.2959 6.25322C16.5592 5.9455 17.0269 5.91637 17.3291 6.17607L21.7363 9.96025H21.7461L21.8047 10.0159C21.9327 10.1525 22 10.3236 22 10.5091C21.9999 10.7207 21.902 10.9232 21.7461 11.0579L17.3389 14.8313C17.2024 14.9468 17.027 15.0051 16.8613 15.0052C16.6566 15.0052 16.4519 14.9178 16.3057 14.7542C16.0327 14.4558 16.0709 13.9937 16.373 13.7337L19.2988 11.221H8.82617C5.87152 11.221 3.46289 13.6188 3.46289 16.5647V18.2776C3.46289 18.6723 3.13121 19.0002 2.73145 19.0003C2.33164 19.0003 2 18.6724 2 18.2776V16.5647C2 12.8293 5.06215 9.7768 8.82617 9.78642H19.2891L16.3633 7.27373C16.0613 7.01374 16.0327 6.55156 16.2959 6.25322Z" fill="#3C3B44"/>
</svg>

<svg xmlns="http://www.w3.org/2000/svg" width="24" height="24" fill="none" viewBox="0 0 24 24"><path fill="currentColor" d="M16.296 6.253a.736.736 0 0 1 1.033-.077l4.407 3.784h.01l.059.056a.7.7 0 0 1 .195.493.73.73 0 0 1-.254.549L17.34 14.83a.75.75 0 0 1-.478.174.75.75 0 0 1-.555-.25.713.713 0 0 1 .067-1.021L19.3 11.22H8.826c-2.954 0-5.363 2.398-5.363 5.344v1.713a.733.733 0 0 1-1.463 0v-1.713c0-3.736 3.062-6.788 6.826-6.779H19.29l-2.926-2.512a.72.72 0 0 1-.067-1.02"/></svg>
